X:100
T:St. Patrick's Day in the Morning
M:6/8
Q:1/8=300
K:A
%%MIDI channel 1
%%MIDI program 72
%%MIDI transpose 8
%%MIDI grace 1/8
%%MIDI ratio 3 1
E|A>BA Acd|e>fe ecA|BAB cAE|F>GF (F2E)|A>BA Acd|e>fe ecA|
B>AB cAE|F2G A2::e|efg a2f|g2e f2d|efg a2f|gfe f2a|
efg a2f|g2e fga|A>BA Acd|e>fe ecA|B>AB cAE|F2G A2:|

